prod/tagline/android/assets/donation_campaign/donate-heart.svg

<svg width="127" height="81" viewBox="0 0 127 81" fill="none" xmlns="http://www.w3.org/2000/svg">
<path d="M96.2591 41.6942C95.7811 40.4285 94.3642 39.7873 93.0985 40.2652H93.0961C94.3593 39.7945 95.7715 40.4357 96.2495 41.6966C96.3095 41.8551 96.3503 42.016 96.3768 42.1769H96.3864C96.3599 42.016 96.3191 41.8527 96.2591 41.6942Z" fill="#FFBE00"/>
<path d="M84.7237 52.7322C84.8847 51.1159 85.3722 49.586 86.1383 48.2075C85.7877 48.2387 85.4346 48.3132 85.0864 48.4428C83.8207 48.9208 82.4037 48.2795 81.9282 47.0139L81.066 44.7251H81.0756L86.9765 34.1145L90.31 32.8584C90.4757 32.796 90.6415 32.7383 90.8072 32.6855C90.6391 32.7407 90.4685 32.7984 90.3004 32.8608L86.9669 34.1169L86.3305 32.4285L114.735 21.7171C116.853 20.9173 117.953 18.6381 117.194 16.6231C116.435 14.6081 114.101 13.621 111.985 14.4184L83.5806 25.1298L82.9369 23.427L106.853 14.4088C108.971 13.6114 110.071 11.3322 109.31 9.31483C108.551 7.29982 106.219 6.31274 104.1 7.11009L80.1846 16.1284L79.5409 14.4232L97.7024 7.57361C99.8206 6.77626 100.921 4.49467 100.159 2.47967H100.162C99.4027 0.46707 97.0683 -0.522418 94.9501 0.277338L76.7862 7.1269L76.767 7.13411L0 36.0887V75.2959L73.6592 47.5206L74.5214 49.8094C76.1762 54.1948 80.4992 56.8031 84.9519 56.4908C84.6781 55.2756 84.5965 54.0099 84.7237 52.7322Z" fill="#FFBE00"/>
<path d="M124.346 48.3732C122.365 45.9499 119.558 44.4417 116.44 44.1294C113.325 43.8172 110.273 44.7371 107.849 46.7184L106.538 47.7896L105.467 46.4783C105.027 45.9427 104.547 45.4528 104.033 45.0109C103.245 48.2219 100.942 51.0078 97.6231 52.2591C97.6207 52.2591 97.6183 52.2591 97.6159 52.2615C95.5697 53.0324 93.2881 51.9997 92.5171 49.9559C91.7462 47.9097 92.7789 45.6281 94.8251 44.8571C95.9323 44.4393 96.5615 43.3033 96.3814 42.1769C93.6819 42.1769 91.0881 43.0943 88.9723 44.8259C87.805 45.7794 86.8516 46.9274 86.1407 48.2075C87.8651 48.0562 89.5487 49.0529 90.1899 50.7508C90.9608 52.7971 89.9281 55.0787 87.8843 55.8496C86.9212 56.2122 85.9365 56.4212 84.9567 56.4884C85.3505 58.2417 86.1479 59.8916 87.3175 61.323L102.76 80.2097C102.89 80.3683 103.072 80.4595 103.262 80.4787C103.452 80.4979 103.649 80.4451 103.81 80.313L122.697 64.8703C125.122 62.8889 126.628 60.0789 126.94 56.964C127.252 53.849 126.333 50.7965 124.349 48.3732H124.346Z" fill="#FF6E78"/>
<path d="M90.1876 50.7508C89.5464 49.0529 87.8628 48.0562 86.1384 48.2075C85.3723 49.586 84.8871 51.1159 84.7238 52.7322C84.5965 54.0099 84.6782 55.2732 84.952 56.4908C85.9318 56.4212 86.9165 56.2146 87.8796 55.852C89.9258 55.0811 90.9585 52.7971 90.1852 50.7532L90.1876 50.7508Z" fill="#FF6E78"/>
<path d="M92.5243 49.9535C91.7534 47.9073 92.7861 45.6257 94.8299 44.8547C95.9371 44.4369 96.5639 43.3009 96.3862 42.1769H96.3766C96.5567 43.3033 95.9275 44.4393 94.8203 44.8571C92.7741 45.6281 91.7414 47.9121 92.5123 49.9559C93.2832 52.0021 95.5672 53.0348 97.611 52.2615C95.5672 53.0276 93.2904 51.9949 92.5195 49.9511L92.5243 49.9535Z" fill="#FF6E78"/>
<path d="M93.0985 40.2651H93.0912L81.0757 44.7202L93.0985 40.2651Z" fill="#FFBE00"/>
<path d="M103.656 38.9034C104.42 40.928 104.504 43.0463 104.026 45.006L104.033 45.0108C104.514 43.0487 104.43 40.928 103.666 38.901C101.711 33.7158 96.0213 31.0115 90.8025 32.6855C96.0189 31.0163 101.701 33.723 103.656 38.9034Z" fill="#FFBE00"/>
<path d="M86.9739 34.1144L81.073 44.7202L93.0886 40.2651H93.0982C94.3638 39.7848 95.7808 40.426 96.2588 41.6917C96.3188 41.8502 96.362 42.0111 96.386 42.1744C96.7751 42.1744 97.1666 42.1936 97.5581 42.2345C99.9813 42.477 102.217 43.4473 104.023 45.0036C104.501 43.0438 104.417 40.928 103.654 38.9009C101.701 33.7205 96.0162 31.0139 90.7998 32.683C90.634 32.7359 90.4683 32.7935 90.3026 32.8559L86.9691 34.112L86.9739 34.1144Z" fill="#FFBE00"/>
<path d="M97.6157 52.2616C97.6157 52.2616 97.6205 52.2616 97.6229 52.2592C100.944 51.0079 103.245 48.2219 104.033 45.0109L104.026 45.0061C103.24 48.2219 100.937 51.0103 97.6133 52.264L97.6157 52.2616Z" fill="#FFBE00"/>
<path d="M104.026 45.006C102.217 43.4474 99.9838 42.4795 97.5605 42.2369C97.1691 42.1985 96.7776 42.1769 96.3885 42.1769C96.5662 43.3009 95.937 44.4369 94.8322 44.8547C92.786 45.6257 91.7533 47.9097 92.5266 49.9535C93.2976 51.9973 95.5744 53.0276 97.6182 52.2639C100.942 51.0102 103.245 48.2219 104.031 45.006H104.026Z" fill="#FFBE00"/>
</svg>

<svg fill="none" xmlns="http://www.w3.org/2000/svg" viewBox="0 0 127 81"><path d="M96.259 41.694a2.455 2.455 0 0 0-3.16-1.429h-.003a2.46 2.46 0 0 1 3.28 1.912h.01a2.5 2.5 0 0 0-.127-.483" fill="#ffbe00"/><path d="M84.724 52.732a11.7 11.7 0 0 1 1.414-4.524c-.35.03-.703.105-1.052.235a2.45 2.45 0 0 1-3.158-1.43l-.862-2.288h.01l5.9-10.61 3.334-1.257-.01.003-3.333 1.256-.636-1.688 28.404-10.712c2.118-.8 3.218-3.079 2.459-5.094s-3.093-3.002-5.209-2.205L83.581 25.13l-.644-1.703 23.916-9.018c2.118-.798 3.218-3.077 2.457-5.094-.759-2.015-3.091-3.002-5.21-2.205l-23.915 9.018-.644-1.705 18.161-6.85c2.119-.797 3.219-3.078 2.457-5.093h.003C99.402.467 97.068-.522 94.95.277l-18.164 6.85-.019.007L0 36.09v39.207L73.66 47.52l.861 2.288c1.655 4.386 5.978 6.994 10.43 6.682a11.8 11.8 0 0 1-.227-3.759" fill="#ffbe00"/><path d="M124.346 48.373a11.64 11.64 0 0 0-7.906-4.243 11.65 11.65 0 0 0-8.591 2.588l-1.311 1.072-1.071-1.312q-.662-.803-1.434-1.467c-.788 3.21-3.091 5.997-6.41 7.248q-.004 0-.007.002a3.957 3.957 0 1 1-2.79-7.404 2.455 2.455 0 0 0 1.555-2.68c-2.7 0-5.293.917-7.409 2.649a11.7 11.7 0 0 0-2.831 3.382 3.96 3.96 0 0 1 4.049 2.543 3.957 3.957 0 0 1-2.306 5.099c-.963.362-1.948.571-2.927.639a11.7 11.7 0 0 0 2.36 4.834L102.76 80.21a.743.743 0 0 0 1.05.103l18.886-15.443a11.64 11.64 0 0 0 4.244-7.906 11.64 11.64 0 0 0-2.591-8.59z" fill="#ff6e78"/><path d="M90.188 50.75a3.96 3.96 0 0 0-4.05-2.542 11.77 11.77 0 0 0-1.186 8.283 10.4 10.4 0 0 0 2.928-.639 3.954 3.954 0 0 0 2.305-5.099zm2.336-.796a3.957 3.957 0 0 1 2.306-5.1 2.456 2.456 0 0 0 1.556-2.677h-.01a2.455 2.455 0 0 1-1.556 2.68 3.957 3.957 0 1 0 2.791 7.404 3.956 3.956 0 0 1-5.092-2.31z" fill="#ff6e78"/><path d="M93.099 40.265h-.008L81.076 44.72zm10.557-1.362c.764 2.025.848 4.143.37 6.103l.007.005a10.3 10.3 0 0 0-.367-6.11c-1.955-5.185-7.645-7.89-12.864-6.216 5.217-1.669 10.899 1.038 12.854 6.218" fill="#ffbe00"/><path d="M86.974 34.115 81.073 44.72l12.016-4.455h.01a2.452 2.452 0 0 1 3.287 1.91q.584 0 1.172.06a11.64 11.64 0 0 1 6.465 2.769 10.3 10.3 0 0 0-.369-6.103c-1.953-5.18-7.638-7.887-12.854-6.218q-.25.079-.497.173l-3.334 1.256zm10.642 18.147.007-.003c3.321-1.251 5.622-4.037 6.41-7.248l-.007-.005c-.786 3.216-3.089 6.004-6.413 7.258z" fill="#ffbe00"/><path d="M104.026 45.006a11.63 11.63 0 0 0-6.465-2.77c-.392-.037-.783-.06-1.173-.06a2.46 2.46 0 0 1-1.556 2.679 3.958 3.958 0 0 0 2.786 7.41 10.37 10.37 0 0 0 6.413-7.259z" fill="#ffbe00"/></svg>
